images/telegram.svg

<svg fill="#000000" xmlns="http://www.w3.org/2000/svg"  viewBox="0 0 32 32" width="32px" height="32px"><path d="M 26.070313 3.996094 C 25.734375 4.011719 25.417969 4.109375 25.136719 4.21875 L 25.132813 4.21875 C 24.847656 4.332031 23.492188 4.902344 21.433594 5.765625 C 19.375 6.632813 16.703125 7.757813 14.050781 8.875 C 8.753906 11.105469 3.546875 13.300781 3.546875 13.300781 L 3.609375 13.277344 C 3.609375 13.277344 3.25 13.394531 2.875 13.652344 C 2.683594 13.777344 2.472656 13.949219 2.289063 14.21875 C 2.105469 14.488281 1.957031 14.902344 2.011719 15.328125 C 2.101563 16.050781 2.570313 16.484375 2.90625 16.722656 C 3.246094 16.964844 3.570313 17.078125 3.570313 17.078125 L 3.578125 17.078125 L 8.460938 18.722656 C 8.679688 19.425781 9.949219 23.597656 10.253906 24.558594 C 10.433594 25.132813 10.609375 25.492188 10.828125 25.765625 C 10.933594 25.90625 11.058594 26.023438 11.207031 26.117188 C 11.265625 26.152344 11.328125 26.179688 11.390625 26.203125 C 11.410156 26.214844 11.429688 26.21875 11.453125 26.222656 L 11.402344 26.210938 C 11.417969 26.214844 11.429688 26.226563 11.441406 26.230469 C 11.480469 26.242188 11.507813 26.246094 11.558594 26.253906 C 12.332031 26.488281 12.953125 26.007813 12.953125 26.007813 L 12.988281 25.980469 L 15.871094 23.355469 L 20.703125 27.0625 L 20.8125 27.109375 C 21.820313 27.550781 22.839844 27.304688 23.378906 26.871094 C 23.921875 26.433594 24.132813 25.875 24.132813 25.875 L 24.167969 25.785156 L 27.902344 6.65625 C 28.007813 6.183594 28.035156 5.742188 27.917969 5.3125 C 27.800781 4.882813 27.5 4.480469 27.136719 4.265625 C 26.769531 4.046875 26.40625 3.980469 26.070313 3.996094 Z M 25.96875 6.046875 C 25.964844 6.109375 25.976563 6.101563 25.949219 6.222656 L 25.949219 6.234375 L 22.25 25.164063 C 22.234375 25.191406 22.207031 25.25 22.132813 25.308594 C 22.054688 25.371094 21.992188 25.410156 21.667969 25.28125 L 15.757813 20.75 L 12.1875 24.003906 L 12.9375 19.214844 C 12.9375 19.214844 22.195313 10.585938 22.59375 10.214844 C 22.992188 9.84375 22.859375 9.765625 22.859375 9.765625 C 22.886719 9.3125 22.257813 9.632813 22.257813 9.632813 L 10.082031 17.175781 L 10.078125 17.15625 L 4.242188 15.191406 L 4.242188 15.1875 C 4.238281 15.1875 4.230469 15.183594 4.226563 15.183594 C 4.230469 15.183594 4.257813 15.171875 4.257813 15.171875 L 4.289063 15.15625 L 4.320313 15.144531 C 4.320313 15.144531 9.53125 12.949219 14.828125 10.71875 C 17.480469 9.601563 20.152344 8.476563 22.207031 7.609375 C 24.261719 6.746094 25.78125 6.113281 25.867188 6.078125 C 25.949219 6.046875 25.910156 6.046875 25.96875 6.046875 Z"/></svg>

<svg xmlns="http://www.w3.org/2000/svg" width="32" height="32"><path d="M26.07 3.996a2.974 2.974 0 0 0-.933.223h-.004c-.285.113-1.64.683-3.7 1.547l-7.382 3.109c-5.297 2.23-10.504 4.426-10.504 4.426l.062-.024s-.359.118-.734.375a2.03 2.03 0 0 0-.586.567c-.184.27-.332.683-.277 1.11.09.722.558 1.155.894 1.394.34.242.664.355.664.355h.008l4.883 1.645c.219.703 1.488 4.875 1.793 5.836.18.574.355.933.574 1.207.106.14.23.257.379.351a1.119 1.119 0 0 0 .246.106l-.05-.012c.015.004.027.016.038.02.04.011.067.015.118.023.773.234 1.394-.246 1.394-.246l.035-.028 2.883-2.625 4.832 3.707.11.047c1.007.442 2.027.196 2.566-.238.543-.437.754-.996.754-.996l.035-.09 3.734-19.129c.106-.472.133-.914.016-1.343a1.807 1.807 0 0 0-.781-1.047 1.872 1.872 0 0 0-1.067-.27Zm-.101 2.05c-.004.063.008.056-.02.177v.011l-3.699 18.93c-.016.027-.043.086-.117.145-.078.062-.14.101-.465-.028l-5.91-4.531-3.57 3.254.75-4.79 9.656-9c.398-.37.265-.448.265-.448.028-.454-.601-.133-.601-.133l-12.176 7.543-.004-.02-5.836-1.965v-.004l-.015-.003a.27.27 0 0 0 .03-.012l.032-.016.031-.011s5.211-2.196 10.508-4.426c2.652-1.117 5.324-2.242 7.379-3.11 2.055-.863 3.574-1.496 3.66-1.53.082-.032.043-.032.102-.032Z"/></svg>
